icons/svg/landuse/retail.svg

<?xml version="1.0" encoding="UTF-8" standalone="no"?>
<!-- Created with Inkscape (http://www.inkscape.org/) -->

<svg
   xmlns:dc="http://purl.org/dc/elements/1.1/"
   xmlns:cc="http://creativecommons.org/ns#"
   xmlns:rdf="http://www.w3.org/1999/02/22-rdf-syntax-ns#"
   xmlns:svg="http://www.w3.org/2000/svg"
   xmlns="http://www.w3.org/2000/svg"
   xmlns:sodipodi="http://sodipodi.sourceforge.net/DTD/sodipodi-0.dtd"
   xmlns:inkscape="http://www.inkscape.org/namespaces/inkscape"
   version="1.0"
   width="580"
   height="580"
   id="svg2"
   sodipodi:version="0.32"
   inkscape:version="0.91 r"
   sodipodi:docname="retail.svg"
   inkscape:output_extension="org.inkscape.output.svg.inkscape">
  <metadata
     id="metadata10">
    <rdf:RDF>
      <cc:Work
         rdf:about="">
        <dc:format>image/svg+xml</dc:format>
        <dc:type
           rdf:resource="http://purl.org/dc/dcmitype/StillImage" />
        <cc:license
           rdf:resource="http://web.resource.org/cc/PublicDomain" />
        <dc:language>en</dc:language>
        <dc:title />
      </cc:Work>
    </rdf:RDF>
  </metadata>
  <sodipodi:namedview
     inkscape:window-height="1004"
     inkscape:window-width="1920"
     inkscape:pageshadow="2"
     inkscape:pageopacity="0.0"
     guidetolerance="10.0"
     gridtolerance="10.0"
     objecttolerance="10.0"
     borderopacity="1.0"
     bordercolor="#666666"
     pagecolor="#ffffff"
     id="base"
     showgrid="false"
     inkscape:zoom="0.1767767"
     inkscape:cx="-110.50653"
     inkscape:cy="730.74137"
     inkscape:window-x="1680"
     inkscape:window-y="0"
     inkscape:current-layer="svg2"
     showguides="true"
     inkscape:guide-bbox="true"
     inkscape:window-maximized="1" />
  <defs
     id="defs4">
    <inkscape:perspective
       sodipodi:type="inkscape:persp3d"
       inkscape:vp_x="0 : 290 : 1"
       inkscape:vp_y="0 : 1000 : 0"
       inkscape:vp_z="580 : 290 : 1"
       inkscape:persp3d-origin="290 : 193.33333 : 1"
       id="perspective12" />
    <style
       type="text/css"
       id="style6">
   
    .fil0 {fill:#EF7900}
   
  </style>
    <inkscape:perspective
       id="perspective6807"
       inkscape:persp3d-origin="29.116032 : 19.410688 : 1"
       inkscape:vp_z="58.232063 : 29.116032 : 1"
       inkscape:vp_y="0 : 1000 : 0"
       inkscape:vp_x="0 : 29.116032 : 1"
       sodipodi:type="inkscape:persp3d" />
    <inkscape:perspective
       id="perspective6954"
       inkscape:persp3d-origin="290 : 193.33333 : 1"
       inkscape:vp_z="580 : 290 : 1"
       inkscape:vp_y="0 : 1000 : 0"
       inkscape:vp_x="0 : 290 : 1"
       sodipodi:type="inkscape:persp3d" />
    <inkscape:perspective
       id="perspective2541"
       inkscape:persp3d-origin="240 : 160 : 1"
       inkscape:vp_z="480 : 240 : 1"
       inkscape:vp_y="0 : 1000 : 0"
       inkscape:vp_x="0 : 240 : 1"
       sodipodi:type="inkscape:persp3d" />
    <inkscape:perspective
       id="perspective2750"
       inkscape:persp3d-origin="215 : 143.33333 : 1"
       inkscape:vp_z="430 : 215 : 1"
       inkscape:vp_y="0 : 1000 : 0"
       inkscape:vp_x="0 : 215 : 1"
       sodipodi:type="inkscape:persp3d" />
    <inkscape:perspective
       id="perspective2830"
       inkscape:persp3d-origin="0.5 : 0.33333333 : 1"
       inkscape:vp_z="1 : 0.5 : 1"
       inkscape:vp_y="0 : 1000 : 0"
       inkscape:vp_x="0 : 0.5 : 1"
       sodipodi:type="inkscape:persp3d" />
    <inkscape:perspective
       id="perspective3648"
       inkscape:persp3d-origin="0.5 : 0.33333333 : 1"
       inkscape:vp_z="1 : 0.5 : 1"
       inkscape:vp_y="0 : 1000 : 0"
       inkscape:vp_x="0 : 0.5 : 1"
       sodipodi:type="inkscape:persp3d" />
    <inkscape:perspective
       id="perspective3675"
       inkscape:persp3d-origin="0.5 : 0.33333333 : 1"
       inkscape:vp_z="1 : 0.5 : 1"
       inkscape:vp_y="0 : 1000 : 0"
       inkscape:vp_x="0 : 0.5 : 1"
       sodipodi:type="inkscape:persp3d" />
    <inkscape:perspective
       id="perspective3736"
       inkscape:persp3d-origin="0.5 : 0.33333333 : 1"
       inkscape:vp_z="1 : 0.5 : 1"
       inkscape:vp_y="0 : 1000 : 0"
       inkscape:vp_x="0 : 0.5 : 1"
       sodipodi:type="inkscape:persp3d" />
  </defs>
  <g
     id="g1327">
    <path
       d="M 66.275,1.768 C 24.94,1.768 1.704,23.139 1.704,66.804 L 1.704,516.927 C 1.704,557.771 22.598,579.156 63.896,579.156 L 515.92,579.156 C 557.227,579.156 578.149,558.84 578.149,516.927 L 578.149,66.804 C 578.149,24.203 557.227,1.768 514.627,1.768 C 514.624,1.768 66.133,1.625 66.275,1.768 z"
       style="fill:#111111;stroke:#eeeeee;stroke-width:3.40799999"
       id="path1329" />
  </g>
  <g
     id="g4150"
     style="stroke:none;fill:#ffffff;fill-opacity:1;opacity:0.601">
    <path
       inkscape:connector-curvature="0"
       id="rect2994-7"
       d="m 376.66016,134.45913 0,49.18359 21.25,0 0.75976,-3.23437 0,-0.002 c 1.41173,-6.01067 4.34304,-11.63205 8.35938,-16.31836 l -30.36914,-29.6289 z m 62.26757,218.70312 -9.85156,43.75 0,28.64649 0,0.002 c -7.4e-4,8.08243 -3.0262,15.80735 -7.84765,22.24805 0.007,0.11739 0.0331,0.23011 0.0391,0.34765 l -0.0449,-0.34179 c -0.0355,0.0474 -0.0776,0.0894 -0.11328,0.13672 0.11646,1.21946 0.35851,2.428 0.35351,3.65234 -2e-4,1.63524 -0.11067,3.2697 -0.32031,4.89258 -2.07353,25.48898 -20.05134,47.49696 -44.48242,53.81054 l 0,13.93555 62.26757,0 0,-171.08008 z"
       style="color:#000000;display:inline;overflow:visible;visibility:visible;opacity:0.69100001;fill:#ffffff;fill-opacity:1;fill-rule:nonzero;stroke:none;stroke-width:2;marker:none;enable-background:accumulate" />
    <path
       inkscape:connector-curvature="0"
       id="rect2994-7-5"
       d="m 302.95508,23.209125 0.0156,28.527343 -6.16992,0 -0.11328,31.326169 -9.54688,0 0,31.328133 -19.32226,0 0,69.25195 77.2832,0 0,-69.25195 -19.32031,0 0,-31.328133 -9.625,0 -0.0352,-31.326169 -6.87109,0 0.0605,-28.519531 -6.35547,-0.0078 z m -35.13672,440.960935 0,60.07227 77.2832,0 0,-14.75195 c -20.54774,-6.44847 -36.11976,-24.0903 -40.625,-45.32032 l -36.6582,0 z"
       style="color:#000000;display:inline;overflow:visible;visibility:visible;opacity:0.69100001;fill:#ffffff;fill-opacity:1;fill-rule:nonzero;stroke:none;stroke-width:2;marker:none;enable-background:accumulate" />
    <path
       inkscape:connector-curvature="0"
       id="rect2994-0"
       d="m 67.318359,180.69741 0,35.74805 -33.318359,0 0,307.79687 70.79883,0 0,-217.49414 -19.195314,-74.9082 0,-0.002 c -4.202752,-16.40583 4.952047,-34.25184 19.195314,-42.90039 l 0,-8.24023 -37.480471,0 z"
       style="color:#000000;display:inline;overflow:visible;visibility:visible;opacity:0.69100001;fill:#ffffff;fill-opacity:1;fill-rule:nonzero;stroke:none;stroke-width:2;marker:none;enable-background:accumulate" />
    <path
       inkscape:connector-curvature="0"
       id="path3-3-1"
       d="m 136.35742,107.08608 0,76.55664 99.90235,0 0,-49.12109 -99.90235,-27.43555 z m 18.01367,51.69922 18.16016,0 0,21.51562 -18.16016,0 0,-21.51562 z m 45.83399,0 18.16211,0 0,21.51562 -18.16211,0 0,-21.51562 z m -63.84766,234.65234 0,22.46094 c 4.10092,-6.08584 9.28288,-11.40455 15.32422,-15.6543 -5.53713,-1.08829 -10.77111,-3.47817 -15.32422,-6.80664 z m 99.90235,86.71875 c -10.11266,17.97767 -28.99028,30.52814 -51.13672,30.52344 -20.45028,-0.004 -38.17696,-10.68715 -48.76563,-26.50391 l 0,40.06641 99.90235,0 0,-44.08594 z"
       style="opacity:0.69100001;fill:#ffffff;fill-opacity:1;stroke:none" />
    <path
       style="opacity:0.69100001;fill:#ffffff;fill-opacity:1;stroke:none"
       id="path3"
       d="m 511.94531,304.75016 -41.45868,36.58208 0,182.9104 82.91737,0 0,-182.9104 -41.45869,-36.58208 z m 11.30691,36.58208 -22.61383,0 0,-8.23097 11.30692,-10.06008 11.30691,10.06008 0,8.23097 z m -22.61383,45.7276 -15.07588,0 0,-18.29104 15.07588,0 0,18.29104 z m 0,36.58208 -15.07588,0 0,-18.29104 15.07588,0 0,18.29104 z m 0,36.58208 -15.07588,0 0,-18.29104 15.07588,0 0,18.29104 z m 0,36.58208 -15.07588,0 0,-18.29104 15.07588,0 0,18.29104 z m 37.68972,-109.74624 -15.07589,0 0,-18.29104 15.07589,0 0,18.29104 z m 0,36.58208 -15.07589,0 0,-18.29104 15.07589,0 0,18.29104 z m 0,36.58208 -15.07589,0 0,-18.29104 15.07589,0 0,18.29104 z m 0,36.58208 -15.07589,0 0,-18.29104 15.07589,0 0,18.29104 z"
       inkscape:connector-curvature="0" />
  </g>
  <path
     style="color:#000000;font-style:normal;font-variant:normal;font-weight:normal;font-stretch:normal;font-size:medium;line-height:normal;font-family:sans-serif;text-indent:0;text-align:start;text-decoration:none;text-decoration-line:none;text-decoration-style:solid;text-decoration-color:#000000;letter-spacing:normal;word-spacing:normal;text-transform:none;direction:ltr;block-progression:tb;writing-mode:lr-tb;baseline-shift:baseline;text-anchor:start;white-space:normal;clip-rule:nonzero;display:inline;overflow:visible;visibility:visible;opacity:1;isolation:auto;mix-blend-mode:normal;color-interpolation:sRGB;color-interpolation-filters:linearRGB;solid-color:#000000;solid-opacity:1;fill:#ffffff;fill-opacity:1;fill-rule:evenodd;stroke:none;stroke-width:28.1733551;stroke-linecap:round;stroke-linejoin:round;stroke-miterlimit:4;stroke-dasharray:none;stroke-dashoffset:0;stroke-opacity:1;color-rendering:auto;image-rendering:auto;shape-rendering:auto;text-rendering:auto;enable-background:accumulate"
     d="M 471.79883 158.73438 C 470.10211 158.78724 468.44044 159.26363 466.96875 160.125 L 431.23828 180.37109 C 428.76654 181.77176 426.99111 184.14238 426.3418 186.9082 L 420.43359 212.06641 L 123.00781 212.06641 C 116.35544 212.06686 111.4879 218.3389 113.13867 224.7832 L 149.05859 364.95703 C 150.08523 368.95986 153.42867 371.947 157.52148 372.51758 L 380.27734 403.56836 L 380.27734 415.37305 L 181.55078 415.37305 C 177.67588 415.30745 174.09855 417.44621 172.32227 420.89062 C 161.76662 426.00387 154.37882 437.19934 154.37695 450.08984 C 154.37395 467.75477 168.23529 482.25232 185.12891 482.25586 C 201.43917 482.25986 214.80291 468.71522 215.71875 451.88477 C 215.83902 451.2995 215.89838 450.70214 215.89453 450.10352 L 215.89453 450.10156 L 215.89453 450.0918 C 215.90053 449.48228 215.83977 448.87316 215.7168 448.27734 C 215.46986 443.80195 214.33625 439.56305 212.50781 435.74609 L 335.55664 435.74609 C 333.01176 440.42017 331.54575 445.8093 331.54492 451.53516 C 331.54192 469.2001 345.40326 483.69764 362.29688 483.70117 C 378.60713 483.70517 391.97088 470.16052 392.88672 453.33008 C 393.00699 452.74481 393.06636 452.14745 393.0625 451.54883 L 393.0625 451.54688 L 393.0625 451.53711 C 393.0685 450.92759 393.00978 450.31849 392.88672 449.72266 C 392.60811 444.67342 391.20201 439.92569 388.93945 435.74609 L 390.46484 435.74609 C 396.09054 435.74524 400.65148 431.18429 400.65234 425.55859 L 400.65234 393.75195 L 438.76562 224.49023 C 438.93687 223.71119 439.01648 222.9147 439.00195 222.11719 L 445.16016 195.90039 L 477.01562 177.84961 C 486.06925 172.88527 482.84428 159.15289 472.52734 158.73633 L 472.52734 158.73828 C 472.28394 158.72844 472.04122 158.72682 471.79883 158.73438 z M 230.68359 240.44727 C 305.39062 240.47656 405 240.75 405 242 C 405 244 374.5 371 374.5 371 L 176.5 345.5 L 150 240.5 C 150 240.5 185.85938 240.42969 230.68359 240.44727 z M 179.35742 435.5332 C 180.07875 435.68341 180.81402 435.75452 181.55078 435.74609 L 191.38281 435.74609 C 196.60491 438.19589 200.182 443.64821 200.18164 450.09375 L 200.18164 450.0957 L 200.18164 450.09766 C 200.17964 458.88404 193.53358 465.82988 185.13086 465.82812 C 176.72813 465.82612 170.08856 458.87817 170.08984 450.0918 C 170.09184 443.4551 173.88162 437.87105 179.35742 435.53516 L 179.35742 435.5332 z M 362.30469 435.80664 C 370.70741 435.80736 377.35009 442.75466 377.34961 451.54102 L 377.34961 451.54297 L 377.34961 451.54492 C 377.34761 460.3313 370.70351 467.27519 362.30078 467.27344 C 353.89805 467.27144 347.25654 460.32542 347.25781 451.53906 C 347.25981 442.75268 353.90197 435.80571 362.30469 435.80664 z "
     id="path2492" />
  <path
     style="fill:none;fill-rule:evenodd;stroke:#ffffff;stroke-width:32;stroke-linecap:butt;stroke-linejoin:miter;stroke-opacity:1;stroke-miterlimit:4;stroke-dasharray:none"
     d="M 218,231.5 218,364"
     id="path4154"
     inkscape:connector-curvature="0" />
  <path
     style="fill:none;fill-rule:evenodd;stroke:#ffffff;stroke-width:32;stroke-linecap:butt;stroke-linejoin:miter;stroke-miterlimit:4;stroke-dasharray:none;stroke-opacity:1"
     d="M 286.5,231 275.8934,371.85355"
     id="path4156"
     inkscape:connector-curvature="0"
     sodipodi:nodetypes="cc" />
  <path
     style="fill:none;fill-rule:evenodd;stroke:#ffffff;stroke-width:32;stroke-linecap:butt;stroke-linejoin:miter;stroke-miterlimit:4;stroke-dasharray:none;stroke-opacity:1"
     d="M 357,228.5 342.85786,380.79289"
     id="path4158"
     inkscape:connector-curvature="0"
     sodipodi:nodetypes="cc" />
  <path
     style="fill:none;fill-rule:evenodd;stroke:#ffffff;stroke-width:32;stroke-linecap:butt;stroke-linejoin:miter;stroke-opacity:1;stroke-miterlimit:4;stroke-dasharray:none"
     d="M 153,293.5 408,308"
     id="path4160"
     inkscape:connector-curvature="0"
     sodipodi:nodetypes="cc" />
</svg>

<svg width="580" height="580" viewBox="0 0 580 580" fill="none" xmlns="http://www.w3.org/2000/svg">
<g clip-path="url(#clip0)">
<path d="M66.275 1.7679C24.94 1.7679 1.70398 23.1389 1.70398 66.8039V516.927C1.70398 557.771 22.598 579.156 63.896 579.156H515.92C557.227 579.156 578.149 558.84 578.149 516.927V66.8039C578.149 24.2029 557.227 1.7679 514.627 1.7679C514.624 1.7679 66.133 1.6249 66.275 1.7679Z" fill="#111111" stroke="#EEEEEE" stroke-width="3.408"/>
<g opacity="0.601">
<path opacity="0.691" d="M376.66 134.459V183.643H397.91L398.67 180.408V180.406C400.082 174.396 403.013 168.774 407.029 164.088L376.66 134.459V134.459ZM438.928 353.162L429.076 396.912V425.559V425.561C429.075 433.643 426.05 441.368 421.229 447.809C421.236 447.926 421.262 448.039 421.268 448.157L421.223 447.815C421.187 447.862 421.145 447.904 421.109 447.951C421.226 449.171 421.468 450.379 421.463 451.604C421.463 453.239 421.352 454.874 421.143 456.496C419.069 481.985 401.091 503.993 376.66 510.307V524.242H438.928V353.162L438.928 353.162Z" fill="white"/>
<path opacity="0.691" d="M302.955 23.2092L302.971 51.7366H296.801L296.688 83.0627H287.141V114.391H267.818V183.643H345.102V114.391H325.781V83.0627H316.156L316.121 51.7366H309.25L309.31 23.217L302.955 23.2092L302.955 23.2092ZM267.818 464.17V524.242H345.102V509.49C324.554 503.042 308.982 485.4 304.477 464.17H267.818V464.17Z" fill="white"/>
<path opacity="0.691" d="M67.3184 180.698V216.446H34V524.242H104.799V306.748L85.6035 231.84V231.838C81.4008 215.432 90.5556 197.586 104.799 188.938V180.698H67.3184V180.698Z" fill="white"/>
<path opacity="0.691" d="M136.357 107.086V183.643H236.26V134.522L136.357 107.086V107.086ZM154.371 158.785H172.531V180.301H154.371V158.785ZM200.205 158.785H218.367V180.301H200.205V158.785V158.785ZM136.357 393.438V415.899C140.458 409.813 145.64 404.494 151.682 400.244C146.145 399.156 140.911 396.766 136.357 393.438ZM236.26 480.156C226.147 498.134 207.269 510.685 185.123 510.68C164.673 510.676 146.946 499.993 136.357 484.176V524.242H236.26V480.156V480.156Z" fill="white"/>
<path opacity="0.691" d="M511.945 304.75L470.487 341.332V524.243H553.404V341.332L511.945 304.75V304.75ZM523.252 341.332H500.638V333.101L511.945 323.041L523.252 333.101V341.332ZM500.638 387.06H485.562V368.769H500.638V387.06ZM500.638 423.642H485.562V405.351H500.638V423.642ZM500.638 460.224H485.562V441.933H500.638V460.224ZM500.638 496.806H485.562V478.515H500.638V496.806ZM538.328 387.06H523.252V368.769H538.328V387.06ZM538.328 423.642H523.252V405.351H538.328V423.642ZM538.328 460.224H523.252V441.933H538.328V460.224ZM538.328 496.806H523.252V478.515H538.328V496.806Z" fill="white"/>
</g>
<path fill-rule="evenodd" clip-rule="evenodd" d="M471.799 158.734C470.102 158.787 468.44 159.264 466.969 160.125L431.238 180.371C428.767 181.772 426.991 184.142 426.342 186.908L420.434 212.067H123.008C116.355 212.067 111.488 218.339 113.139 224.783L149.059 364.957C150.085 368.96 153.429 371.947 157.522 372.518L380.277 403.568V415.373H181.551C177.676 415.308 174.099 417.446 172.322 420.891C161.767 426.004 154.379 437.199 154.377 450.09C154.374 467.755 168.235 482.252 185.129 482.256C201.439 482.26 214.803 468.715 215.719 451.885C215.839 451.3 215.898 450.702 215.895 450.104V450.102V450.092C215.901 449.482 215.84 448.873 215.717 448.277C215.47 443.802 214.336 439.563 212.508 435.746H335.557C333.012 440.42 331.546 445.809 331.545 451.535C331.542 469.2 345.403 483.698 362.297 483.701C378.607 483.705 391.971 470.161 392.887 453.33C393.007 452.745 393.066 452.148 393.063 451.549V451.547V451.537C393.069 450.928 393.01 450.319 392.887 449.723C392.608 444.674 391.202 439.926 388.939 435.746H390.465C396.091 435.745 400.652 431.184 400.652 425.559V393.752L438.766 224.49C438.937 223.711 439.017 222.915 439.002 222.117L445.16 195.9L477.016 177.85C486.069 172.885 482.844 159.153 472.527 158.736V158.738C472.284 158.729 472.041 158.727 471.799 158.734ZM230.684 240.447C305.391 240.477 405 240.75 405 242C405 244 374.5 371 374.5 371L176.5 345.5L150 240.5C150 240.5 185.859 240.43 230.684 240.447ZM179.357 435.533C180.079 435.684 180.814 435.755 181.551 435.746H191.383C196.605 438.196 200.182 443.648 200.182 450.094V450.096V450.098C200.18 458.884 193.534 465.83 185.131 465.828C176.728 465.826 170.089 458.878 170.09 450.092C170.092 443.455 173.882 437.871 179.357 435.535V435.533ZM362.305 435.807C370.707 435.807 377.35 442.755 377.35 451.541V451.543V451.545C377.348 460.331 370.704 467.275 362.301 467.274C353.898 467.272 347.257 460.326 347.258 451.539C347.26 442.753 353.902 435.806 362.305 435.807Z" fill="white"/>
<path d="M218 231.5V364" stroke="white" stroke-width="32"/>
<path d="M286.5 231L275.893 371.854" stroke="white" stroke-width="32"/>
<path d="M357 228.5L342.858 380.793" stroke="white" stroke-width="32"/>
<path d="M153 293.5L408 308" stroke="white" stroke-width="32"/>
</g>
<defs>
<clipPath id="clip0">
<path d="M0 0H580V580H0V0Z" fill="white"/>
</clipPath>
</defs>
</svg>
